assets/dji_dlog_m.cube
LUT_3D_SIZE 6
0.000000 0.000000 0.000000
0.380500 0.000000 0.014452
0.660456 0.000000 0.069586
0.948822 0.000000 0.069224
1.218799 0.000000 0.035971
1.329452 0.021841 0.010112
0.000000 0.357219 0.000000
0.346766 0.349923 0.000000
0.617422 0.179068 0.000000
0.917864 0.123602 0.000000
1.224363 0.060579 0.000000
1.329671 0.109710 0.012741
0.000000 0.581645 0.000000
0.073806 0.580529 0.000000
0.553660 0.576508 0.000000
0.843499 0.482606 0.000000
1.189523 0.379259 0.000000
1.330429 0.281317 0.022765
0.000000 0.818030 0.000000
0.002168 0.817136 0.000000
0.327725 0.806880 0.000000
0.747753 0.781232 0.002078
1.159636 0.634105 0.010887
1.323090 0.459740 0.034469
0.000000 1.169612 0.000000
0.000000 1.169407 0.000000
0.015154 1.168049 0.000000
0.434715 1.155886 0.002020
1.073037 1.106483 0.006504
1.307212 0.739084 0.029850
0.000000 1.328503 0.000000
0.000000 1.328502 0.000000
0.000000 1.328501 0.000000
0.014320 1.328494 0.000000
0.541407 1.328420 0.000000
1.296659 1.308293 0.000000
0.009572 0.000000 0.386675
0.383717 0.002546 0.387280
0.662467 0.000000 0.253159
0.948412 0.005855 0.223908
1.217058 0.015242 0.148216
1.331237 0.031502 0.092706
0.000000 0.351791 0.356087
0.344176 0.344633 0.345436
0.616763 0.286074 0.290666
0.921816 0.228834 0.240566
1.227398 0.192347 0.201923
1.337823 0.146510 0.151272
0.000000 0.581343 0.116935
0.127662 0.584320 0.144315
0.561712 0.577594 0.168559
0.850479 0.460041 0.142345
1.219331 0.319030 0.115960
1.335527 0.206578 0.099305
0.000000 0.817316 0.011853
0.002067 0.816394 0.009416
0.337127 0.806191 0.012082
0.754919 0.781023 0.022123
1.174228 0.620330 0.085884
1.334178 0.431197 0.073895
0.000000 1.169433 0.000000
0.000000 1.169254 0.000000
0.016527 1.168166 0.000000
0.444814 1.156430 0.003005
1.078218 1.108570 0.016386
1.317163 0.737222 0.045069
0.000000 1.328502 0.000000
0.000000 1.328502 0.000000
0.000000 1.328501 0.000000
0.014391 1.328496 0.000000
0.547471 1.328429 0.000000
1.299384 1.311104 0.000000
0.000000 0.000000 0.654311
0.256479 0.000000 0.650056
0.661018 0.000000 0.632022
0.941437 0.000000 0.580454
1.213473 0.007534 0.416484
1.330757 0.025145 0.279933
0.000000 0.178707 0.639457
0.294550 0.283410 0.632848
0.625189 0.243396 0.610012
0.921465 0.217266 0.541321
1.225217 0.176947 0.397116
1.337931 0.135125 0.276222
0.000000 0.577202 0.583535
0.119256 0.580072 0.583559
0.566284 0.566512 0.566684
0.859030 0.524083 0.528906
1.250324 0.415207 0.439986
1.344633 0.372650 0.390414
0.000000 0.812936 0.399004
0.005070 0.811746 0.394291
0.444582 0.807386 0.458353
0.774339 0.783055 0.441851
1.217439 0.631958 0.399549
1.343791 0.500343 0.388691
0.000000 1.168245 0.141252
0.000000 1.168047 0.138208
0.048733 1.169163 0.124758
0.469192 1.164258 0.222165
1.094825 1.118387 0.154091
1.341969 0.739688 0.165555
0.000000 1.328501 0.000000
0.000000 1.328501 0.000000
0.000000 1.328501 0.000000
0.016630 1.328498 0.000000
0.562552 1.328448 0.000000
1.307024 1.318823 0.000000
0.012534 0.000000 1.008351
0.266762 0.000000 0.992895
0.640914 0.000000 0.952828
0.933120 0.000000 0.898042
1.208683 0.000000 0.678498
1.329943 0.015611 0.493449
0.003711 0.119928 0.987251
0.236631 0.172210 0.969152
0.592832 0.134221 0.939274
0.918241 0.173500 0.886868
1.220214 0.150485 0.664972
1.337614 0.117604 0.483282
0.000000 0.506986 0.934847
0.032113 0.495102 0.925646
0.542367 0.517465 0.893508
0.861778 0.484508 0.848705
1.253945 0.393425 0.663906
1.349057 0.355749 0.519189
0.000000 0.804595 0.811496
0.002069 0.802823 0.808264
0.432932 0.798510 0.800723
0.765990 0.766266 0.766539
1.210496 0.689694 0.696648
1.340909 0.580931 0.594471
0.000000 1.163795 0.541864
0.000000 1.163544 0.540101
0.090582 1.165869 0.527669
0.566349 1.166214 0.593152
1.111624 1.124243 0.556208
1.363640 0.765982 0.500897
0.000000 1.328498 0.119030
0.000000 1.328498 0.117188
0.000000 1.328497 0.111678
0.039820 1.332111 0.098567
0.576202 1.342445 0.172176
1.321852 1.332602 0.047815
0.002904 0.000000 1.309601
0.158963 0.000000 1.305640
0.496547 0.000000 1.288056
0.760940 0.000000 1.254504
1.202884 0.000000 1.175690
1.328478 0.000000 1.038993
0.008853 0.009047 1.306396
0.160225 0.005327 1.302634
0.495509 0.005327 1.286060
0.759556 0.021153 1.254752
1.207983 0.065897 1.180236
1.335240 0.077110 1.040186
0.000000 0.337466 1.289594
0.081689 0.322575 1.293296
0.508358 0.445296 1.304711
0.741783 0.406822 1.283808
1.239568 0.361690 1.219095
1.352767 0.310025 1.048625
0.000000 0.635552 1.261869
0.000000 0.633137 1.260302
0.413288 0.651362 1.277112
0.747856 0.708554 1.249334
1.218367 0.640371 1.204044
1.363413 0.541576 1.032708
0.000000 1.149359 1.153929
0.000000 1.148935 1.153057
0.024938 1.148421 1.151336
0.538988 1.150645 1.151983
1.095778 1.097973 1.097600
1.330132 0.947101 0.948019
0.000000 1.328483 0.683456
0.000000 1.328483 0.682719
0.000000 1.328481 0.680521
0.039607 1.332076 0.673868
0.759778 1.349965 0.788847
1.341029 1.348187 0.777568
0.015614 0.000000 1.328530
0.152068 0.000000 1.328530
0.452953 0.000000 1.328530
0.716838 0.000000 1.328530
1.220203 0.000000 1.328530
1.328436 0.000000 1.297258
0.029442 0.000000 1.328530
0.174286 0.000000 1.328530
0.463650 0.000000 1.328530
0.716795 0.000000 1.328530
1.221090 0.000000 1.328530
1.328435 0.000000 1.297285
0.000000 0.154572 1.328530
0.185142 0.204401 1.343458
0.439101 0.214768 1.345584
0.696815 0.071564 1.334828
1.231297 0.000000 1.328530
1.331177 0.028799 1.317756
0.000000 0.519345 1.328530
0.000000 0.514887 1.328530
0.445400 0.563644 1.362669
0.710512 0.606122 1.361420
1.234840 0.511945 1.363685
1.362744 0.447603 1.354197
0.000000 1.110012 1.328530
0.000000 1.108785 1.328530
0.013052 1.105923 1.329750
0.514421 1.104977 1.363678
1.120056 1.041890 1.328530
1.337685 0.896903 1.329496
0.000000 1.328442 1.328383
0.000000 1.328442 1.328382
0.000000 1.328439 1.328377
0.037374 1.331835 1.331770
0.721925 1.353244 1.353171
1.328118 1.328144 1.328117
