assets/dji_dlog_m.cube
LUT_3D_SIZE 16
0.000000 0.000000 0.000000
0.062589 0.000000 0.003104
0.255486 0.000000 0.007054
0.380500 0.000000 0.014452
0.472826 0.000000 0.033349
0.581876 0.000000 0.066480
0.660456 0.000000 0.069586
0.735122 0.000000 0.068607
0.823233 0.000000 0.068288
0.948822 0.000000 0.069224
1.058921 0.000000 0.062258
1.143893 0.000000 0.049810
1.218799 0.000000 0.035971
1.277861 0.000000 0.020890
1.316841 0.000000 0.006552
1.329452 0.021841 0.010112
0.000000 0.048174 0.000000
0.047089 0.045785 0.000000
0.244217 0.041722 0.000000
0.375089 0.023481 0.000000
0.462521 0.010387 0.010029
0.562685 0.003101 0.024819
0.646403 0.000000 0.035777
0.724635 0.000000 0.043063
0.815454 0.000000 0.047990
0.944622 0.000000 0.052226
1.058983 0.000000 0.049125
1.145238 0.000000 0.040380
1.220473 0.000000 0.028751
1.279268 0.000000 0.016273
1.317795 0.004226 0.004799
1.329445 0.032166 0.010038
0.000000 0.219366 0.000000
0.026711 0.215926 0.000000
0.208222 0.208987 0.000000
0.367755 0.150327 0.000000
0.453985 0.100217 0.000000
0.543171 0.071690 0.000000
0.626721 0.047528 0.000000
0.704816 0.029389 0.000000
0.797613 0.019450 0.008692
0.933224 0.015293 0.015302
1.058991 0.006185 0.013507
1.149315 0.002580 0.014288
1.225522 0.000000 0.011296
1.283287 0.005353 0.006078
1.317187 0.029381 0.000000
1.329502 0.061813 0.010636
0.000000 0.357219 0.000000
0.007919 0.356124 0.000000
0.119495 0.352953 0.000000
0.346766 0.349923 0.000000
0.439795 0.253988 0.000000
0.531174 0.208568 0.000000
0.617422 0.179068 0.000000
0.695537 0.156600 0.000000
0.784761 0.139185 0.000000
0.917864 0.123602 0.000000
1.050001 0.098376 0.000000
1.145863 0.072167 0.000000
1.224363 0.060579 0.000000
1.280316 0.070629 0.000000
1.314389 0.098852 0.000000
1.329671 0.109710 0.012741
0.000000 0.429890 0.000000
0.004113 0.429316 0.000000
0.058670 0.428143 0.000000
0.222267 0.427009 0.000000
0.415861 0.425706 0.000000
0.512303 0.350849 0.000000
0.602993 0.310345 0.000000
0.682953 0.284577 0.000000
0.770447 0.268285 0.000000
0.897838 0.260331 0.000000
1.033643 0.240797 0.000000
1.132347 0.203048 0.000000
1.213678 0.179448 0.000000
1.273015 0.171252 0.000000
1.311085 0.171447 0.002580
1.329911 0.165700 0.015840
0.000000 0.504471 0.000000
0.000000 0.504336 0.000000
0.022677 0.503850 0.000000
0.140437 0.502951 0.000000
0.309906 0.501806 0.000000
0.483140 0.500289 0.000000
0.583989 0.443459 0.000000
0.666918 0.406590 0.000000
0.753268 0.386828 0.000000
0.871211 0.377570 0.000000
1.015244 0.369619 0.000000
1.116960 0.320768 0.000000
1.201498 0.284322 0.000000
1.264673 0.259852 0.000000
1.307346 0.240254 0.006066
1.330170 0.223636 0.019198
0.000000 0.581645 0.000000
0.000000 0.581533 0.000000
0.005244 0.581178 0.000000
0.073806 0.580529 0.000000
0.232181 0.579618 0.000000
0.394015 0.578325 0.000000
0.553660 0.576508 0.000000
0.648681 0.530766 0.000000
0.731238 0.497910 0.000000
0.843499 0.482606 0.000000
0.996764 0.488201 0.000000
1.101687 0.427559 0.000000
1.189523 0.379259 0.000000
1.256482 0.340517 0.002021
1.303168 0.306289 0.010388
1.330429 0.281317 0.022765
0.000000 0.652460 0.000000
0.000000 0.652367 0.000000
0.001295 0.652103 0.000000
0.026069 0.651611 0.000000
0.161920 0.650854 0.000000
0.321493 0.649709 0.000000
0.475904 0.647655 0.000000
0.615501 0.642467 0.000000
0.706565 0.603425 0.000000
0.815709 0.578081 0.000000
0.969950 0.582924 0.000000
1.087796 0.523125 0.000000
1.178976 0.463421 0.002021
1.249431 0.413818 0.007196
1.298752 0.371199 0.015634
1.329243 0.336503 0.026792
0.000000 0.725648 0.000000
0.000000 0.725568 0.000000
0.000000 0.725329 0.000000
0.006610 0.724767 0.000000
0.094041 0.722769 0.000000
0.251306 0.719011 0.000000
0.404331 0.714105 0.000000
0.545125 0.708483 0.000000
0.672479 0.701835 0.000000
0.786763 0.672018 0.000000
0.941113 0.671337 0.000000
1.074841 0.614688 0.003704
1.170139 0.542065 0.006790
1.242470 0.483943 0.012305
1.293670 0.434869 0.020255
1.326664 0.393012 0.030788
0.000000 0.818030 0.000000
0.000000 0.817943 0.000000
0.000000 0.817685 0.000000
0.002168 0.817136 0.000000
0.035081 0.815701 0.000000
0.162738 0.812316 0.000000
0.327725 0.806880 0.000000
0.475724 0.800235 0.000000
0.608587 0.792258 0.000000
0.747753 0.781232 0.002078
0.903252 0.773183 0.003509
1.058251 0.726190 0.006266
1.159636 0.634105 0.010887
1.234714 0.563941 0.016900
1.287903 0.507078 0.024799
1.323090 0.459740 0.034469
0.000000 0.955801 0.000000
0.000000 0.955723 0.000000
0.000000 0.955489 0.000000
0.000000 0.954954 0.000000
0.007432 0.953911 0.000000
0.073805 0.951333 0.000000
0.232048 0.946061 0.000000
0.402869 0.938339 0.000000
0.552760 0.928797 0.002036
0.703766 0.914943 0.002650
0.858949 0.894542 0.003982
1.030889 0.867985 0.006504
1.144714 0.748794 0.011600
1.225665 0.661225 0.018921
1.281564 0.592685 0.027883
1.318229 0.537983 0.036885
0.000000 1.077367 0.000000
0.000000 1.077328 0.000000
0.000000 1.077217 0.000000
0.000000 1.076997 0.000000
0.001859 1.076584 0.000000
0.013973 1.075772 0.000000
0.077866 1.074009 0.000000
0.258814 1.069806 0.000000
0.429861 1.063897 0.000000
0.603404 1.054900 0.002020
0.783809 1.040879 0.003701
0.964997 1.019429 0.005469
1.118576 0.882014 0.009452
1.213869 0.774931 0.016710
1.274921 0.695045 0.026396
1.312514 0.632150 0.036346
0.000000 1.169612 0.000000
0.000000 1.169593 0.000000
0.000000 1.169538 0.000000
0.000000 1.169407 0.000000
0.000000 1.169200 0.000000
0.001446 1.168815 0.000000
0.015154 1.168049 0.000000
0.087858 1.166299 0.000000
0.245413 1.162488 0.000000
0.434715 1.155886 0.002020
0.621562 1.145335 0.002573
0.805339 1.129662 0.004051
1.073037 1.106483 0.006504
1.194107 1.071255 0.011470
1.268660 1.021921 0.020800
1.307212 0.739084 0.029850
0.000000 1.243948 0.000000
0.000000 1.243935 0.000000
0.000000 1.243893 0.000000
0.000000 1.243824 0.000000
0.000000 1.243728 0.000000
0.000000 1.243515 0.000000
0.003622 1.243210 0.000000
0.017849 1.242610 0.000000
0.085392 1.241322 0.000000
0.231176 1.238414 0.000000
0.450248 1.232517 0.002020
0.651887 1.223198 0.003005
1.004925 1.209074 0.004503
1.158554 1.187777 0.007615
1.258938 1.153777 0.013638
1.303879 1.105508 0.022613
0.000000 1.303085 0.000000
0.000000 1.303078 0.000000
0.000000 1.303062 0.000000
0.000000 1.303038 0.000000
0.000000 1.302994 0.000000
0.000000 1.302877 0.000000
0.000000 1.302749 0.000000
0.006099 1.302498 0.000000
0.016249 1.302135 0.000000
0.078846 1.301293 0.000000
0.223957 1.299434 0.000000
0.482173 1.295286 0.002020
0.696455 1.288308 0.003430
1.103857 1.276951 0.005469
1.236363 1.258791 0.009041
1.303787 1.229179 0.010947
0.000000 1.328503 0.000000
0.000000 1.328503 0.000000
0.000000 1.328502 0.000000
0.000000 1.328502 0.000000
0.000000 1.328502 0.000000
0.000000 1.328501 0.000000
0.000000 1.328501 0.000000
0.000000 1.328499 0.000000
0.006009 1.328497 0.000000
0.014320 1.328494 0.000000
0.075008 1.328484 0.000000
0.229992 1.328462 0.000000
0.541407 1.328420 0.000000
1.011714 1.326118 0.000000
1.203312 1.319755 0.000000
1.296659 1.308293 0.000000
0.004138 0.000000 0.060886
0.061790 0.000000 0.060799
0.259244 0.003854 0.059464
0.382331 0.005546 0.046829
0.476344 0.003615 0.051347
0.583127 0.000000 0.071249
0.661194 0.000000 0.072191
0.735896 0.000000 0.070161
0.823820 0.000000 0.068734
0.949311 0.000000 0.069542
1.059089 0.000000 0.062433
1.143970 0.000000 0.049992
1.218830 0.000000 0.036085
1.277759 0.000000 0.021856
1.317148 0.010930 0.014027
1.331000 0.029673 0.028706
0.000000 0.047312 0.048591
0.045804 0.044139 0.045544
0.250479 0.039761 0.041270
0.378288 0.031323 0.032222
0.465391 0.014132 0.021511
0.564567 0.004185 0.030856
0.647582 0.002141 0.039050
0.725352 0.000000 0.044527
0.816025 0.000000 0.048370
0.945116 0.000000 0.052542
1.059152 0.000000 0.049333
1.145319 0.000000 0.040538
1.220501 0.000000 0.028878
1.279279 0.002021 0.016913
1.318075 0.014849 0.015591
1.330848 0.030965 0.026770
0.000000 0.218518 0.021648
0.023352 0.217738 0.015226
0.210898 0.209681 0.011533
0.368784 0.147807 0.008320
0.454726 0.098429 0.004057
0.543771 0.070058 0.003126
0.627115 0.046522 0.000000
0.705260 0.028859 0.000000
0.798111 0.019120 0.008794
0.933724 0.014833 0.014972
1.059174 0.006066 0.013659
1.149401 0.002580 0.014418
1.225544 0.000000 0.011430
1.283278 0.007061 0.007803
1.318569 0.022879 0.010636
1.330418 0.044427 0.021411
0.000000 0.356968 0.002368
0.008272 0.356069 0.002588
0.121672 0.352700 0.000000
0.348153 0.349718 0.000000
0.440263 0.253161 0.000000
0.531622 0.207852 0.000000
0.617811 0.178441 0.000000
0.695914 0.156080 0.000000
0.785193 0.138728 0.000000
0.918333 0.123128 0.000000
1.050231 0.097871 0.000000
1.146012 0.071745 0.000000
1.224523 0.059728 0.000000
1.280689 0.068006 0.000000
1.316921 0.079933 0.008197
1.330403 0.092549 0.021254
0.000000 0.429784 0.000000
0.004349 0.429245 0.000000
0.058621 0.428150 0.000000
0.222684 0.426958 0.000000
0.416696 0.425595 0.000000
0.512683 0.350358 0.000000
0.603343 0.309936 0.000000
0.683278 0.284201 0.000000
0.770813 0.267961 0.000000
0.898242 0.260015 0.000000
1.033880 0.240335 0.000000
1.132574 0.202377 0.000000
1.214044 0.178048 0.000000
1.273968 0.167157 0.002580
1.313835 0.156390 0.010860
1.330567 0.152545 0.023519
0.000000 0.504550 0.000000
0.000000 0.504403 0.000000
0.022431 0.503885 0.000000
0.140413 0.502939 0.000000
0.310210 0.501744 0.000000
0.483663 0.500183 0.000000
0.584239 0.443099 0.000000
0.667161 0.406245 0.000000
0.753540 0.386482 0.000000
0.871549 0.377173 0.000000
1.015535 0.368914 0.000000
1.117332 0.319809 0.000000
1.202194 0.282421 0.002021
1.267038 0.252482 0.006404
1.310129 0.229210 0.015139
1.330806 0.213021 0.026879
0.000000 0.581710 0.000000
0.000000 0.581590 0.000000
0.005152 0.581216 0.000000
0.073505 0.580533 0.000000
0.232145 0.579584 0.000000
0.394172 0.578252 0.000000
0.553951 0.576398 0.000000
0.648823 0.530472 0.000000
0.731431 0.497602 0.000000
0.843799 0.482254 0.000000
0.997276 0.487720 0.000000
1.102414 0.425881 0.002580
1.191388 0.375167 0.005789
1.259565 0.333358 0.011134
1.305839 0.298390 0.019800
1.331056 0.272573 0.030509
0.000000 0.652500 0.000000
0.000000 0.652402 0.000000
0.001295 0.652121 0.000000
0.025479 0.651600 0.000000
0.161487 0.650805 0.000000
0.321332 0.649618 0.000000
0.475959 0.647534 0.000000
0.615729 0.642300 0.000000
0.706718 0.603021 0.000000
0.816109 0.577446 0.002753
0.970845 0.581779 0.004245
1.089201 0.520277 0.006921
1.181368 0.459360 0.010501
1.252164 0.408977 0.016535
1.301007 0.366377 0.024165
1.330947 0.330450 0.034174
0.000000 0.725629 0.000000
0.000000 0.725545 0.000000
0.000000 0.725294 0.000000
0.006199 0.724715 0.000000
0.093754 0.722685 0.000000
0.250913 0.718898 0.000000
0.404054 0.713965 0.000000
0.545019 0.708312 0.000000
0.672704 0.701704 0.002107
0.787165 0.671626 0.003622
0.942050 0.670629 0.005992
1.076014 0.612844 0.009832
1.172027 0.539537 0.014840
1.244694 0.480964 0.020829
1.295788 0.431373 0.028792
1.328347 0.389218 0.037627
0.000000 0.817975 0.000000
0.000000 0.817888 0.000000
0.000000 0.817629 0.000000
0.001923 0.817080 0.000000
0.035081 0.815641 0.000000
0.163643 0.812247 0.000000
0.328292 0.806820 0.000000
0.476055 0.800239 0.002072
0.608979 0.792283 0.002780
0.748352 0.781227 0.003897
0.904186 0.773203 0.006172
1.059170 0.725154 0.010546
1.160918 0.632782 0.016692
1.236454 0.562164 0.024159
1.289855 0.504851 0.032840
1.324616 0.457381 0.040437
0.000000 0.955728 0.000000
0.000000 0.955651 0.000000
0.000000 0.955419 0.000000
0.000000 0.954898 0.000000
0.007301 0.953875 0.000000
0.074706 0.951311 0.000000
0.233991 0.946045 0.000000
0.404288 0.938363 0.000000
0.553845 0.928867 0.002036
0.704657 0.915051 0.003499
0.859806 0.894669 0.005480
1.031672 0.867339 0.008949
1.145733 0.748026 0.015691
1.226956 0.660229 0.024468
1.283002 0.591502 0.033943
1.319716 0.536480 0.041625
0.000000 1.077328 0.000000
0.000000 1.077291 0.000000
0.000000 1.077185 0.000000
0.000000 1.076972 0.000000
0.001859 1.076576 0.000000
0.014231 1.075781 0.000000
0.078897 1.074033 0.000000
0.260968 1.069833 0.000000
0.431125 1.063991 0.002020
0.604424 1.055004 0.002573
0.784609 1.041009 0.004051
0.965586 1.019579 0.006504
1.119278 0.881591 0.011402
1.214721 0.774456 0.019977
1.276022 0.694408 0.031238
1.313974 0.631308 0.038927
0.000000 1.169593 0.000000
0.000000 1.169575 0.000000
0.000000 1.169521 0.000000
0.000000 1.169395 0.000000
0.000000 1.169198 0.000000
0.001446 1.168831 0.000000
0.015288 1.168076 0.000000
0.090019 1.166320 0.000000
0.246911 1.162534 0.000000
0.435972 1.155957 0.002020
0.622366 1.145464 0.003005
0.805856 1.129848 0.004765
1.073642 1.106718 0.007615
1.194734 1.071551 0.013384
1.269460 1.022204 0.024011
1.308251 0.738786 0.032052
0.000000 1.243938 0.000000
0.000000 1.243926 0.000000
0.000000 1.243886 0.000000
0.000000 1.243820 0.000000
0.000000 1.243730 0.000000
0.000000 1.243525 0.000000
0.003762 1.243228 0.000000
0.017871 1.242642 0.000000
0.086641 1.241357 0.000000
0.232190 1.238468 0.000000
0.451289 1.232594 0.002020
0.652542 1.223320 0.003005
1.005526 1.209281 0.005167
1.159045 1.188051 0.008366
1.259459 1.154138 0.015281
1.304662 1.106162 0.023355
0.000000 1.303081 0.000000
0.000000 1.303076 0.000000
0.000000 1.303061 0.000000
0.000000 1.303039 0.000000
0.000000 1.302995 0.000000
0.000000 1.302884 0.000000
0.000000 1.302763 0.000000
0.006160 1.302517 0.000000
0.016249 1.302165 0.000000
0.079550 1.301330 0.000000
0.224645 1.299489 0.000000
0.483023 1.295364 0.002020
0.696930 1.288425 0.003430
1.104325 1.277151 0.005907
1.236738 1.259060 0.009800
1.304269 1.229687 0.011139
0.000000 1.328503 0.000000
0.000000 1.328502 0.000000
0.000000 1.328502 0.000000
0.000000 1.328502 0.000000
0.000000 1.328502 0.000000
0.000000 1.328501 0.000000
0.000000 1.328501 0.000000
0.000000 1.328499 0.000000
0.006039 1.328497 0.000000
0.014293 1.328494 0.000000
0.075386 1.328485 0.000000
0.230940 1.328463 0.000000
0.542118 1.328421 0.000000
1.012169 1.326249 0.000000
1.203688 1.319965 0.000000
1.296972 1.308615 0.000000
0.003962 0.000000 0.254880
0.054209 0.000000 0.252580
0.251835 0.002672 0.256762
0.383527 0.004946 0.186701
0.482635 0.003203 0.156820
0.587341 0.003065 0.152185
0.663455 0.003783 0.136275
0.737959 0.004152 0.124157
0.825680 0.005885 0.117176
0.950088 0.007954 0.113518
1.058294 0.010103 0.099933
1.142889 0.012543 0.083742
1.217765 0.016823 0.070695
1.277382 0.021088 0.060067
1.317385 0.026870 0.052585
1.331324 0.032802 0.047867
0.002678 0.043784 0.247238
0.031683 0.034819 0.248920
0.245503 0.033785 0.248200
0.381309 0.036271 0.174391
0.475881 0.025148 0.139707
0.577054 0.025676 0.132184
0.656210 0.026901 0.119639
0.731925 0.027037 0.110113
0.820438 0.025777 0.104683
0.946310 0.024425 0.102001
1.057494 0.024587 0.090840
1.143373 0.026963 0.077829
1.218897 0.029602 0.067433
1.278675 0.034030 0.059568
1.318471 0.038185 0.054800
1.332054 0.042650 0.052076
0.000000 0.215568 0.215561
0.019935 0.215336 0.215664
0.203972 0.202646 0.203512
0.371223 0.186010 0.187790
0.457653 0.151487 0.155012
0.547302 0.117913 0.123099
0.632670 0.095509 0.102882
0.711735 0.078907 0.088956
0.803432 0.069200 0.082452
0.935408 0.061438 0.078845
1.056334 0.057809 0.075233
1.146175 0.058712 0.072290
1.223013 0.067577 0.075829
1.282758 0.080089 0.083771
1.322107 0.083346 0.085247
1.334511 0.080881 0.081477
0.000000 0.355901 0.121092
0.008508 0.355458 0.118237
0.129729 0.357676 0.125497
0.351615 0.353577 0.114074
0.441816 0.252710 0.112446
0.531521 0.203001 0.097392
0.616816 0.168493 0.081324
0.694845 0.142063 0.069538
0.784493 0.120963 0.061204
0.919310 0.103226 0.055940
1.052531 0.085311 0.055397
1.149060 0.073743 0.058719
1.228225 0.072703 0.063168
1.286552 0.076763 0.068051
1.323339 0.085210 0.074908
1.333572 0.077714 0.065396
0.000000 0.429370 0.055659
0.004809 0.429210 0.053795
0.070609 0.431323 0.069452
0.217050 0.429263 0.062660
0.417455 0.426682 0.056841
0.512866 0.345287 0.054604
0.602572 0.300358 0.055704
0.682205 0.270053 0.053835
0.769841 0.249491 0.050547
0.899830 0.235250 0.045082
1.038439 0.208152 0.038404
1.140768 0.165569 0.034026
1.224634 0.134944 0.033263
1.284903 0.119222 0.039667
1.321996 0.113720 0.047804
1.332646 0.110929 0.051257
0.000000 0.504571 0.026878
0.000000 0.504393 0.026355
0.028415 0.505279 0.031021
0.133573 0.504194 0.033547
0.305961 0.502167 0.030717
0.482800 0.499738 0.029515
0.583457 0.438715 0.030344
0.666351 0.398116 0.034256
0.752959 0.374534 0.037115
0.873421 0.360704 0.036902
1.019934 0.344990 0.034774
1.125818 0.291260 0.033719
1.213487 0.249096 0.034943
1.277872 0.216908 0.038961
1.318275 0.194249 0.045278
1.332309 0.174130 0.046534
0.000000 0.581691 0.009884
0.000000 0.581550 0.009579
0.007397 0.581443 0.009524
0.067541 0.580730 0.012050
0.228036 0.579318 0.011093
0.391461 0.577499 0.011445
0.552971 0.575174 0.013092
0.648146 0.526990 0.016319
0.731533 0.491834 0.021722
0.845432 0.473126 0.027359
1.000312 0.472878 0.031851
1.109931 0.406278 0.036196
1.201303 0.353112 0.039925
1.269401 0.309623 0.044088
1.313468 0.274962 0.049728
1.332427 0.243450 0.048652
0.000000 0.652408 0.003233
0.000000 0.652295 0.003234
0.002127 0.652046 0.003166
0.023249 0.651470 0.004255
0.160088 0.650465 0.004257
0.320265 0.649035 0.004566
0.475303 0.646839 0.006109
0.616170 0.641480 0.008327
0.707214 0.600673 0.011967
0.817626 0.573738 0.018989
0.974886 0.575919 0.027292
1.094773 0.509210 0.035799
1.189382 0.445947 0.042701
1.260559 0.394121 0.048353
1.308062 0.350348 0.054676
1.332607 0.309931 0.051849
0.000000 0.725493 0.000000
0.000000 0.725397 0.000000
0.000000 0.725125 0.000000
0.005685 0.724497 0.000000
0.096121 0.722348 0.000000
0.252725 0.718468 0.000000
0.405180 0.713549 0.002880
0.546141 0.707886 0.005040
0.674289 0.701214 0.007892
0.788897 0.670302 0.012754
0.945449 0.668702 0.021050
1.080071 0.606698 0.031453
1.178044 0.531781 0.041734
1.251686 0.471777 0.049890
1.302418 0.420995 0.059474
1.332667 0.374641 0.054434
0.000000 0.817767 0.000000
0.000000 0.817676 0.000000
0.000000 0.817406 0.000000
0.001624 0.816849 0.000000
0.036540 0.815377 0.000000
0.168826 0.811927 0.000000
0.331533 0.806579 0.002070
0.478690 0.800024 0.003608
0.611174 0.792130 0.005499
0.750717 0.781119 0.008672
0.907336 0.773268 0.014357
1.062195 0.721836 0.024232
1.165256 0.628428 0.036773
1.242012 0.556653 0.049398
1.295712 0.498430 0.061696
1.329808 0.447872 0.055240
0.000000 0.955486 0.000000
0.000000 0.955408 0.000000
0.000000 0.955166 0.000000
0.000000 0.954671 0.000000
0.007256 0.953690 0.000000
0.078132 0.951153 0.000000
0.239959 0.945899 0.000000
0.408677 0.938360 0.002034
0.557176 0.929006 0.003757
0.707469 0.915297 0.005880
0.862425 0.894977 0.009731
1.034040 0.865341 0.016424
1.148763 0.745729 0.028501
1.230872 0.657125 0.043408
1.287994 0.587570 0.059176
1.324716 0.531004 0.053374
0.000000 1.077215 0.000000
0.000000 1.077179 0.000000
0.000000 1.077079 0.000000
0.000000 1.076877 0.000000
0.001570 1.076519 0.000000
0.015604 1.075760 0.000000
0.081861 1.074066 0.000000
0.266997 1.069877 0.000000
0.435354 1.064139 0.002573
0.607279 1.055277 0.003897
0.786760 1.041399 0.006366
0.967223 1.020045 0.010426
1.121411 0.880353 0.018327
1.217526 0.772960 0.031945
1.279722 0.692351 0.049718
1.318187 0.628882 0.047207
0.000000 1.169533 0.000000
0.000000 1.169516 0.000000
0.000000 1.169466 0.000000
0.000000 1.169350 0.000000
0.000000 1.169177 0.000000
0.001083 1.168858 0.000000
0.015701 1.168136 0.000000
0.095953 1.166360 0.000000
0.251079 1.162647 0.000000
0.439452 1.156170 0.002573
0.624655 1.145819 0.003897
0.807351 1.130367 0.006504
1.075386 1.107401 0.010740
1.196558 1.072395 0.019107
1.271883 1.023085 0.034069
1.311545 0.738091 0.037163
0.000000 1.243904 0.000000
0.000000 1.243893 0.000000
0.000000 1.243857 0.000000
0.000000 1.243800 0.000000
0.000000 1.243718 0.000000
0.000000 1.243539 0.000000
0.004083 1.243262 0.000000
0.017970 1.242722 0.000000
0.090171 1.241444 0.000000
0.234995 1.238612 0.000000
0.454223 1.232812 0.002020
0.654291 1.223736 0.003897
1.007261 1.209885 0.006641
1.160500 1.188878 0.011262
1.261009 1.155202 0.020420
1.307005 1.108108 0.025258
0.000000 1.303070 0.000000
0.000000 1.303065 0.000000
0.000000 1.303052 0.000000
0.000000 1.303033 0.000000
0.000000 1.302994 0.000000
0.000000 1.302896 0.000000
0.000000 1.302794 0.000000
0.006369 1.302563 0.000000
0.016248 1.302239 0.000000
0.081559 1.301430 0.000000
0.227356 1.299633 0.000000
0.485389 1.295631 0.002573
0.698127 1.288830 0.004051
1.105686 1.277739 0.007150
1.237870 1.259896 0.012123
1.305690 1.231213 0.011600
0.000000 1.328503 0.000000
0.000000 1.328502 0.000000
0.000000 1.328502 0.000000
0.000000 1.328502 0.000000
0.000000 1.328502 0.000000
0.000000 1.328501 0.000000
0.000000 1.328501 0.000000
0.000000 1.328500 0.000000
0.006128 1.328498 0.000000
0.014194 1.328495 0.000000
0.076438 1.328486 0.000000
0.233631 1.328465 0.000000
0.544167 1.328424 0.000000
1.013485 1.326632 0.000000
1.204795 1.320599 0.000000
1.297892 1.309560 0.000000
0.009572 0.000000 0.386675
0.039725 0.000000 0.385504
0.178227 0.000000 0.383565
0.383717 0.002546 0.387280
0.490294 0.000000 0.308496
0.588019 0.000000 0.278402
0.662467 0.000000 0.253159
0.736447 0.003270 0.235832
0.824095 0.003859 0.226655
0.948412 0.005855 0.223908
1.056727 0.008410 0.202045
1.141816 0.011044 0.172900
1.217058 0.015242 0.148216
1.276917 0.019679 0.127322
1.317093 0.025494 0.108442
1.331237 0.031502 0.092706
0.004134 0.024183 0.385203
0.034650 0.024720 0.384527
0.168390 0.020816 0.381616
0.382299 0.026571 0.383542
0.481894 0.021226 0.295791
0.579036 0.025282 0.263681
0.656484 0.026294 0.239623
0.731509 0.025993 0.223445
0.819675 0.025868 0.214568
0.945038 0.025953 0.212581
1.055854 0.026499 0.193222
1.142262 0.027488 0.165996
1.218146 0.029535 0.143332
1.278223 0.033084 0.123775
1.318181 0.036636 0.106649
1.331981 0.041361 0.092283
0.000000 0.151190 0.376008
0.011654 0.148226 0.375608
0.158722 0.165379 0.377937
0.372790 0.157087 0.373194
0.460337 0.139822 0.274704
0.553392 0.126814 0.236169
0.639579 0.124711 0.219130
0.717857 0.119667 0.206621
0.807733 0.114089 0.199025
0.935869 0.108094 0.196278
1.053579 0.101346 0.181920
1.143997 0.095035 0.160884
1.221885 0.088800 0.142914
1.282336 0.084249 0.127825
1.321896 0.082334 0.114850
1.334454 0.078857 0.102995
0.000000 0.351791 0.356087
0.006744 0.351581 0.355197
0.123982 0.354563 0.357247
0.344176 0.344633 0.345436
0.439930 0.332788 0.333977
0.530293 0.312472 0.315042
0.616763 0.286074 0.290666
0.696780 0.261866 0.268510
0.788275 0.242972 0.251774
0.921816 0.228834 0.240566
1.050474 0.215775 0.228472
1.146695 0.205482 0.216480
1.227398 0.192347 0.201923
1.288335 0.177080 0.185270
1.326988 0.161058 0.167581
1.337823 0.146510 0.151272
0.000000 0.428797 0.234425
0.003267 0.428614 0.233025
0.068952 0.430679 0.228514
0.291801 0.432228 0.294701
0.424918 0.428487 0.289756
0.514033 0.382428 0.293251
0.602480 0.347860 0.274823
0.681630 0.316027 0.254977
0.769724 0.285838 0.233263
0.903852 0.256263 0.209828
1.045719 0.227844 0.193666
1.150012 0.212328 0.192383
1.233311 0.207851 0.195378
1.293003 0.204157 0.195073
1.330012 0.190775 0.183714
1.338305 0.164816 0.159575
0.000000 0.504241 0.164837
0.000000 0.504010 0.163872
0.029155 0.504790 0.158862
0.224746 0.509461 0.232070
0.339220 0.507038 0.242104
0.493081 0.503028 0.232099
0.587261 0.443634 0.223561
0.667455 0.405275 0.217636
0.753862 0.374037 0.199288
0.878941 0.346681 0.175020
1.030093 0.310848 0.148676
1.142803 0.251755 0.130177
1.232365 0.211289 0.123374
1.293699 0.187901 0.124993
1.329686 0.173753 0.126936
1.336495 0.155403 0.118468
0.000000 0.581343 0.116935
0.000000 0.581174 0.116178
0.010429 0.581120 0.112636
0.127662 0.584320 0.144315
0.261609 0.584086 0.187573
0.403150 0.581277 0.178304
0.561712 0.577594 0.168559
0.652083 0.522527 0.155343
0.734644 0.484143 0.151086
0.850479 0.460041 0.142345
1.008788 0.445275 0.128659
1.124883 0.375113 0.121512
1.219331 0.319030 0.115960
1.285939 0.273481 0.111345
1.325720 0.238138 0.109027
1.335527 0.206578 0.099305
0.000000 0.652072 0.078053
0.000000 0.651946 0.077417
0.002127 0.651652 0.075022
0.049027 0.652518 0.075021
0.182446 0.653401 0.124415
0.325937 0.651387 0.114835
0.479261 0.648344 0.105341
0.622198 0.642231 0.096324
